!!!COM: Palestrina, Giovanni Perluigi da
!!!OPR: Missa In te Domine speravi (1599)
!!!OMD: Sanctus
!!!OTL: Hosanna
**kern	**kern	**kern	**kern	**kern	**kern
*Ibass	*Itenor	*Itenor	*Icalto	*Icant	*Icant
!Bassus	!Tenor 2	!Tenor 1	!Altus	!Cantus 2	!Cantus 1
*clefF4	*clefGv2	*clefGv2	*clefG2	*clefG2	*clefG2
*k[]	*k[]	*k[]	*k[]	*k[]	*k[]
*C:ion	*C:ion	*C:ion	*C:ion	*C:ion	*C:ion
*M4/2	*M4/2	*M4/2	*M4/2	*M4/2	*M4/2
=67	=67	=67	=67	=67	=67
0r	0r	0r	1f	1r	0r
.	.	.	2a	1cc	.
.	.	.	2a	.	.
=68	=68	=68	=68	=68	=68
0r	0r	0r	2g	2ee	0r
.	.	.	2e	2ee	.
.	.	.	1f	2dd	.
.	.	.	.	2a	.
=69	=69	=69	=69	=69	=69
0r	1c	0r	2e	1cc	0r
.	.	.	2.a	.	.
.	2e	.	.	2.b	.
.	.	.	4g	.	.
.	2e	.	[2g	.	.
.	.	.	.	8a	.
.	.	.	.	8g	.
=70	=70	=70	=70	=70	=70
0r	2d	0r	4g]	1a	2r
.	.	.	4f	.	.
.	2A	.	2f	.	2cc
.	1c	.	2e	2g	2ee
.	.	.	2c	[2a	2ee
=71	=71	=71	=71	=71	=71
0r	2.B	1r	1d	4a]	2dd
.	.	.	.	4g	.
.	.	.	.	1g	2b
.	8A	.	.	.	.
.	8G	.	.	.	.
.	1A	1c	1r	.	1cc
.	.	.	.	2f#	.
=72	=72	=72	=72	=72	=72
0r	1G	2e	2r	4g	2.b
.	.	.	.	4a	.
.	.	2e	2g	4b	.
.	.	.	.	4cc	8a
.	.	.	.	.	8g
.	1r	2d	2f	2dd	1a
.	.	2A	2e	2cc	.
=73	=73	=73	=73	=73	=73
1C	0r	1c	2.e	1.ee	2g
.	.	.	.	.	2.a
.	.	.	4f	.	.
2E	.	2.B	2g	.	.
.	.	.	.	.	4g
2E	.	.	2G	2b	[2g
.	.	8A	.	.	.
.	.	8G	.	.	.
=74	=74	=74	=74	=74	=74
2D	1r	1A	0d	0dd	2g]
2D	.	.	.	.	2f#
1G	2r	2G	.	.	1g
.	2d	[2g	.	.	.
=75	=75	=75	=75	=75	=75
1C	2e	2g]	1c	0r	2r
.	2e	2e	.	.	2g
2r	2d	1f	1r	.	2a
2F	2A	.	.	.	[2a
=76	=76	=76	=76	=76	=76
2A	1c	2e	1r	0r	4a]
.	.	.	.	.	4g
2A	.	2c	.	.	4e
.	.	.	.	.	4f
2G	2B	1d	2r	.	2g
2D	[2A	.	2f	.	[2a
=77	=77	=77	=77	=77	=77
1F	2A]	2c	2a	0r	4a]
.	.	.	.	.	4b
.	2F	2A	2a	.	4cc
.	.	.	.	.	4dd
2E	2G	2B	2g	.	2ee
2C	2A	[2c	2e	.	2ee
=78	=78	=78	=78	=78	=78
1D	1F	2c]	1f	1r	1dd
.	.	2B	.	.	.
1C	1G	2c	2.e	2r	1g
.	.	[2e	.	2cc	.
.	.	.	4f	.	.
=79	=79	=79	=79	=79	=79
0r	0r	4e]	2g	2ee	0r
.	.	4d	.	.	.
.	.	2c	2.a	2ee	.
.	.	2B	.	2dd	.
.	.	.	4g	.	.
.	.	2G	[2g	2b	.
=80	=80	=80	=80	=80	=80
1r	1c	1A	2g]	0cc	0r
.	.	.	2f#	.	.
1C	2e	1G	2g	.	.
.	2e	.	4G	.	.
.	.	.	4A	.	.
=81	=81	=81	=81	=81	=81
2G	2d	1r	4B	2.b	0r
.	.	.	4c	.	.
2G	2B	.	4d	.	.
.	.	.	4e	8a	.
.	.	.	.	8g	.
2F	2c	2r	1f	1a	.
2D	[2d	2f	.	.	.
=82	=82	=82	=82	=82	=82
1F	4d]	2a	2f	0r	2r
.	4c	.	.	.	.
.	2A	2a	2c	.	2cc
2E	2B	2g	2r	.	2ee
2C	2c	2e	2e	.	2ee
=83	=83	=83	=83	=83	=83
4D	0A	1f	1a	0r	2dd
4E	.	.	.	.	.
4F	.	.	.	.	2a
4G	.	.	.	.	.
4A	.	2.e	1a	.	4cc
4B	.	.	.	.	4dd
[2c	.	.	.	.	4ee
.	.	8d	.	.	4ff
.	.	8c	.	.	.
=84	=84	=84	=84	=84	=84
2c]	1G	1d	2r	1dd	1gg
2B	.	.	2d	.	.
2c	1r	1c	1g	2ee	2gg
2C	.	.	.	2ee	4g
.	.	.	.	.	4a
=85	=85	=85	=85	=85	=85
1G	2r	1B	1g	2dd	4b
.	.	.	.	.	4cc
.	2g	.	.	2b	4dd
.	.	.	.	.	4ee
1F	2a	1A	1c	1cc	1ff
.	2a	.	.	.	.
=86	=86	=86	=86	=86	=86
2G	2g	2B	1r	2b	2dd
2C	2e	2c	.	4a	2ee
.	.	.	.	4g	.
2F	1f	2A	2r	1a	2cc
2D	.	2d	2A	.	[2dd
=87	=87	=87	=87	=87	=87
2E	2.e	2.G	2e	[0g	4dd]
.	.	.	.	.	4cc
2C	.	.	2.g	.	1cc
.	8d	4A	.	.	.
.	8c	.	.	.	.
1G	1d	1B	.	.	.
.	.	.	4f	.	.
.	.	.	2d	.	2b
=88	=88	=88	=88	=88	=88
0C	0c	0G	0e	0g]	0cc
==	==	==	==	==	==
*-	*-	*-	*-	*-	*-
!!!CDT: 1525/^1526/-1594/2/2
!!!OCY: Italia
!!!AGN: Mass (Parody)
!!!AST: renaissance, vocal
!!!ASW: Motet 1532 (Lupus Hellinck)
!!!PWK: Masses, Book 9
!!!RNB: Cadence finals: G,D
!!!YOR: Le Opere Complete, v. 25, p. 131
!!!YOO: Rome, Italy: Fratelli Scalera
!!!END: 1992//
!!!EED: John Miller
!!!YEC: Copyright 2000, John Miller
!!!YEN: United States of America
!!!YEM: Rights to all derivative electronic formats reserved.
!!!YEM: Refer to licensing agreement for further details.
!!!YEM: This file must be accompanied by the licensing agreement.
!!!YEM: A copy of the licensing agreement may be found at http://www.music-cog.ohio-state.edu/HumdrumDatabases/Palestrina/license.txt
!!!EMD: converted to Humdrum by Bret Aarden
